X:1
T: Dillon Brown
C:
R:Reel
Q: 232
K:G
M:4/4
L:1/8
|:BG AG EG DG|BG AB ce dc|BG AG EG DE|GB AG EG G2|
BG AG EG DG|BG AB ce dc|BG AG EG DE|GB AG EG G2|
Bd df eg dc|Bd df ef g2|Bd df eg dc|BG AG EG G2|
Bd df eg dc|Bd df ef g2|gf ge dc Bd|cA BG EG G2:|
